1
1 + 1
10.rand
().play
Server.default.boot
().play
(degree: 1).play
(degree: 8.rand).play
(degree: [1, 5, 7]).play
(degree: [8.rand, 8.rand, 8.rand]).play
(degree: [8.rand, 8, 5]).play
(degree: Array.rand(4, 2, 8)).play
(degree: Array.rand(8.rand, 2, 10.rand)).play

(degree: Array.rand(8.rand + 3, 2, 10.rand)).play
(degree: Array.rand(7.rrand(20), 3, 21)).play
